X: 84
M:2/4
L:1/16
K:G
v.g2(dc) .B2(AG)|FGAB cAAf|.g2(dc) .B2(AG)|DFAc (BG).G2|
g2(dc) .B2(AG)|FGAB cAAf|.g2(dc) .B2(AG)|DFAc (BG).G2:|
|:DGBG AGBG|DGBG cAAc|Bdef gedc|((3Bcd) (Ac) (BG).G2|


